apps/32/qemu.svg

<?xml version="1.0" encoding="UTF-8" standalone="no"?>
<!-- Created with Inkscape (http://www.inkscape.org/) -->

<svg
   width="32"
   height="32"
   version="1.1"
   viewBox="0 0 32 32"
   id="svg22"
   xmlns:xlink="http://www.w3.org/1999/xlink"
   xmlns="http://www.w3.org/2000/svg"
   xmlns:svg="http://www.w3.org/2000/svg">
  <defs
     id="defs12">
    <linearGradient
       id="linearGradient917">
      <stop
         style="stop-color:#000000;stop-opacity:0.99607843"
         offset="0"
         id="stop913" />
      <stop
         style="stop-color:#353a3f;stop-opacity:0.99607843"
         offset="1"
         id="stop915" />
    </linearGradient>
    <linearGradient
       xlink:href="#linearGradient3487"
       id="linearGradient3403"
       gradientUnits="userSpaceOnUse"
       x1="6.9491749"
       y1="4.5549412"
       x2="11.215498"
       y2="59.052471" />
    <linearGradient
       id="linearGradient3487">
      <stop
         style="stop-color:#32373c;stop-opacity:1"
         offset="0"
         id="stop3481" />
      <stop
         id="stop3483"
         offset="0.36804965"
         style="stop-color:#1a1a1a;stop-opacity:1" />
      <stop
         style="stop-color:#31363b;stop-opacity:1"
         offset="1"
         id="stop3485" />
    </linearGradient>
    <linearGradient
       xlink:href="#linearGradient20604"
       id="linearGradient20558"
       gradientUnits="userSpaceOnUse"
       x1="25.802212"
       y1="20.373846"
       x2="25.111048"
       y2="58.912758" />
    <linearGradient
       id="linearGradient20604">
      <stop
         id="stop20598"
         offset="0"
         style="stop-color:#3d3d3d;stop-opacity:1" />
      <stop
         style="stop-color:#000000;stop-opacity:1"
         offset="0.61772454"
         id="stop20600" />
      <stop
         id="stop20602"
         offset="1"
         style="stop-color:#3d3d3d;stop-opacity:1" />
    </linearGradient>
    <filter
       style="color-interpolation-filters:sRGB"
       id="filter20720"
       x="-0.017024755"
       y="-0.016457183"
       width="1.0340491"
       height="1.0329144">
      <feGaussianBlur
         stdDeviation="0.14745661"
         id="feGaussianBlur20722" />
    </filter>
    <linearGradient
       gradientTransform="translate(0.36067797,-0.13016949)"
       xlink:href="#linearGradient4555"
       id="linearGradient4557"
       x1="43.499737"
       y1="64.011795"
       x2="44.141731"
       y2="0.30621234"
       gradientUnits="userSpaceOnUse" />
    <linearGradient
       id="linearGradient4555">
      <stop
         style="stop-color:#141618;stop-opacity:1"
         offset="0"
         id="stop4551" />
      <stop
         id="stop4559"
         offset="0.51820582"
         style="stop-color:#686868;stop-opacity:1" />
      <stop
         style="stop-color:#31363b;stop-opacity:1"
         offset="1"
         id="stop4553" />
    </linearGradient>
    <filter
       style="color-interpolation-filters:sRGB"
       id="filter4601"
       x="-0.030244762"
       width="1.0604895"
       y="-0.030100647"
       height="1.0602013">
      <feGaussianBlur
         stdDeviation="0.014790289"
         id="feGaussianBlur4603" />
    </filter>
    <linearGradient
       xlink:href="#linearGradient917"
       id="linearGradient919"
       x1="7.400631"
       y1="41.743092"
       x2="33.063145"
       y2="7.1074457"
       gradientUnits="userSpaceOnUse"
       gradientTransform="scale(0.66499999)" />
  </defs>
  <rect
     style="display:inline;fill:url(#linearGradient919);fill-opacity:1;fill-rule:evenodd;stroke:none;stroke-width:0.617;stroke-linejoin:round;stroke-miterlimit:7.8"
     id="rect1192"
     width="27.986259"
     height="28.403553"
     x="2.1033354"
     y="2.0072956"
     ry="0" />
  <path
     style="isolation:isolate;fill:#ffffff;fill-opacity:0.154393;stroke-width:1.55885"
     d="m 14.031452,3.4898426 c -0.01552,0.572098 -1.013251,0.076293 -1.056899,0.7310976 -1.105223,-0.4925955 0.08416,0.7498093 -0.02661,0.8651612 h -0.0045 L 12.8593,5.0758478 C 12.806233,5.0578343 12.728301,5.02602 12.614513,4.9543548 12.380644,5.1414163 12.215406,5.3861567 12.078227,5.6589507 11.15539,7.0946496 10.706443,8.2918438 10.402469,9.8023647 10.01585,11.733771 9.9207591,13.989421 9.9597315,15.891211 c 0.042067,0.537804 0.1761425,1.044427 0.6157425,1.382699 1.237722,1.017922 2.268121,2.302409 3.30787,3.527665 2.046761,2.774938 3.839435,5.141267 5.00857,7.629189 -0.129391,-0.835004 -0.296178,-2.164704 -0.375683,-3.19354 -0.710832,-3.621197 -2.160559,-5.537021 -2.327354,-9.582223 -0.03896,-1.00078 1.039749,-3.024163 2.247857,-4.084175 1.822287,-1.6024946 3.137959,-1.198752 5.463761,-0.855806 0.01247,0.0031 0.02946,0.0064 0.0419,0.008 0.07624,0.01386 0.160735,0.02807 0.236945,0.04364 0.621993,0.05454 1.86907,0.296176 2.093544,-0.132495 C 25.415569,9.9046131 24.18408,9.8110795 23.139656,9.5242551 22.976039,9.4930799 22.768647,9.4587991 22.565997,9.4400907 L 21.545059,9.213982 21.289409,9.1454205 v 0.00914 L 17.632377,8.4422203 C 17.574708,8.3892065 17.510801,8.3362186 17.451523,8.2957021 l 3.568207,0.4427125 v -0.018846 c 0.124707,0.028076 0.250967,0.051464 0.377235,0.06701 v 0.00804 l 2.520651,0.4645111 c 0.434914,0.1621204 0.899467,0.2868278 1.334373,0.3133294 0.718643,0.1044496 1.630561,1.1769279 1.865954,1.2283709 C 27.002519,9.6722029 25.877101,9.1671394 24.94179,8.8351043 23.849048,8.3035139 22.215387,8.3222197 22.04236,6.8537893 21.995637,6.7508638 21.951933,6.649601 21.895814,6.5513729 l -0.42556,-0.5643025 0.01496,-0.00859 C 20.903748,5.2927255 20.088473,4.7923316 19.220196,4.6021606 18.358155,4.3044084 17.388553,4.0097961 16.476626,3.8913266 16.167975,4.8016902 15.821914,3.1695709 15.078345,3.65283 14.425187,3.7308139 14.515601,3.9022454 14.0308,3.4892412 Z m 4.50506,2.0529995 c 0.23071,-0.00665 0.494157,0.045255 0.75916,0.1589608 0.704604,0.3039681 1.1629,0.9446527 1.027282,1.4325732 -0.134048,0.4879178 -0.818397,0.6328858 -1.522995,0.3289096 -0.704598,-0.3039708 -1.164457,-0.9353025 -1.028838,-1.4232228 0.08572,-0.3055312 0.381918,-0.4848027 0.765391,-0.4972734 z"
     id="path22-3" />
  <path
     style="isolation:isolate;fill:#ffffff;fill-opacity:1;stroke-width:1.55885"
     d="m 13.945011,3.0424069 c -0.01552,0.572098 -1.013251,0.076293 -1.056899,0.7310976 -1.105223,-0.4925955 0.08416,0.7498094 -0.02661,0.8651613 h -0.0045 l -0.08419,-0.010254 C 12.719791,4.6103986 12.64186,4.5785843 12.528071,4.5069191 12.294203,4.6939807 12.128965,4.938721 11.991786,5.211515 11.068949,6.6472141 10.620001,7.8444085 10.316028,9.3549294 9.9294088,11.286336 9.8343178,13.541986 9.8732901,15.443776 c 0.042068,0.537803 0.1761429,1.044427 0.6157429,1.382698 1.237722,1.017923 2.268121,2.302409 3.30787,3.527666 2.046761,2.774938 3.839435,5.141267 5.00857,7.629189 -0.129392,-0.835005 -0.296178,-2.164705 -0.375684,-3.193541 -0.710831,-3.621196 -2.160558,-5.53702 -2.327354,-9.582222 -0.03896,-1.00078 1.03975,-3.024163 2.247857,-4.084175 1.822288,-1.6024949 3.13796,-1.1987521 5.463761,-0.855806 0.01247,0.0031 0.02946,0.0064 0.0419,0.008 0.07624,0.01386 0.160735,0.02807 0.236945,0.04364 0.621992,0.05454 1.869069,0.296175 2.093543,-0.132495 C 25.329128,9.4571778 24.097639,9.3636443 23.053214,9.0768198 22.889598,9.0456446 22.682206,9.0113638 22.479556,8.9926554 L 21.458618,8.7665467 21.202967,8.6979852 v 0.00914 L 17.545936,7.994785 C 17.488267,7.9417712 17.42436,7.8887833 17.365082,7.8482669 l 3.568207,0.4427124 v -0.018846 c 0.124707,0.028076 0.250967,0.051464 0.377235,0.06701 v 0.00804 l 2.52065,0.4645112 c 0.434914,0.1621203 0.899467,0.2868278 1.334373,0.3133293 0.718643,0.1044496 1.630562,1.1769282 1.865955,1.2283712 C 26.916077,9.2247677 25.79066,8.7197041 24.855349,8.387669 23.762606,7.8560786 22.128946,7.8747844 21.955918,6.4063538 21.909195,6.3034284 21.865492,6.2021653 21.809373,6.1039372 l -0.425561,-0.5643025 0.01496,-0.00859 C 20.817307,4.8452898 20.002031,4.3448959 19.133755,4.1547249 18.271714,3.8569728 17.302111,3.5623605 16.390185,3.4438909 16.081533,4.3542545 15.735473,2.7221352 14.991904,3.2053943 14.338746,3.2833782 14.429159,3.4548098 13.944359,3.0418055 Z m 4.50506,2.0529995 c 0.23071,-0.00665 0.494156,0.045255 0.75916,0.1589608 0.704604,0.3039682 1.162899,0.9446527 1.027281,1.4325735 C 20.102465,7.1748586 19.418116,7.3198266 18.713517,7.0158504 18.008919,6.7118795 17.549061,6.0805476 17.684679,5.5926272 17.770394,5.287096 18.066598,5.1078245 18.450071,5.0953538 Z"
     id="path22-3-6" />
  <path
     style="display:inline;mix-blend-mode:normal;fill:url(#linearGradient3403);fill-opacity:1;stroke:url(#linearGradient20558);stroke-width:1.16242;stroke-linecap:butt;stroke-linejoin:round;stroke-miterlimit:4;stroke-dasharray:none;stroke-opacity:1;filter:url(#filter20720)"
     d="M 4.7043071,3.9814882 4.6913695,60.80196 H 58.59546 l 1.022155,-2.866369 c 0,0 -23.87537,0.766388 -32.844441,-4.140386 C 16.257548,48.042344 11.401114,4.0978197 11.401114,4.0978197 Z"
     id="path1686"
     transform="matrix(0.49999999,0,0,0.5,0.06630363,0.01654935)" />
  <rect
     style="display:inline;fill:none;fill-opacity:1;stroke:url(#linearGradient4557);stroke-width:3.71366;stroke-linejoin:round;stroke-miterlimit:7.8;stroke-dasharray:none;stroke-opacity:0.995146;filter:url(#filter4601)"
     id="rect4539"
     width="62.567089"
     height="62.866646"
     x="1.0323594"
     y="0.59551275"
     ry="6.2447233"
     rx="5.8029528"
     transform="matrix(0.46839137,0,0,0.46743669,0.90638486,1.0268972)" />
</svg>

<svg width="32" height="32" version="1.1" viewBox="0 0 32 32" xmlns="http://www.w3.org/2000/svg" xmlns:xlink="http://www.w3.org/1999/xlink">
<defs>
<linearGradient id="linearGradient3403" x1="6.9492" x2="11.215" y1="4.5549" y2="59.052" gradientUnits="userSpaceOnUse">
<stop style="stop-color:#32373c" offset="0"/>
<stop style="stop-color:#1a1a1a" offset=".36805"/>
<stop style="stop-color:#31363b" offset="1"/>
</linearGradient>
<linearGradient id="linearGradient20558" x1="25.802" x2="25.111" y1="20.374" y2="58.913" gradientUnits="userSpaceOnUse">
<stop style="stop-color:#3d3d3d" offset="0"/>
<stop offset=".61772"/>
<stop style="stop-color:#3d3d3d" offset="1"/>
</linearGradient>
<linearGradient id="linearGradient4557" x1="43.5" x2="44.142" y1="64.012" y2=".30621" gradientTransform="translate(.36068 -.13017)" gradientUnits="userSpaceOnUse">
<stop style="stop-color:#141618" offset="0"/>
<stop style="stop-color:#686868" offset=".51821"/>
<stop style="stop-color:#31363b" offset="1"/>
</linearGradient>
<linearGradient id="linearGradient919" x1="7.4006" x2="33.063" y1="41.743" y2="7.1074" gradientTransform="scale(.665)" gradientUnits="userSpaceOnUse">
<stop style="stop-opacity:.99608" offset="0"/>
<stop style="stop-color:#353a3f;stop-opacity:.99608" offset="1"/>
</linearGradient>
</defs>
<rect x="2.1033" y="2.0073" width="27.986" height="28.404" ry="0" style="fill-rule:evenodd;fill:url(#linearGradient919)"/>
<path d="m14.031 3.4898c-0.01552 0.5721-1.0133 0.076293-1.0569 0.7311-1.1052-0.4926 0.08416 0.74981-0.02661 0.86516h-0.0045l-0.084143-0.010254c-0.053067-0.018014-0.131-0.049828-0.24479-0.12149-0.23387 0.18706-0.39911 0.4318-0.53629 0.7046-0.92284 1.4357-1.3718 2.6329-1.6758 4.1434-0.38662 1.9314-0.48171 4.1871-0.44274 6.0888 0.042067 0.5378 0.17614 1.0444 0.61574 1.3827 1.2377 1.0179 2.2681 2.3024 3.3079 3.5277 2.0468 2.7749 3.8394 5.1413 5.0086 7.6292-0.12939-0.835-0.29618-2.1647-0.37568-3.1935-0.71083-3.6212-2.1606-5.537-2.3274-9.5822-0.03896-1.0008 1.0397-3.0242 2.2479-4.0842 1.8223-1.6025 3.138-1.1988 5.4638-0.85581 0.01247 0.0031 0.02946 0.0064 0.0419 8e-3 0.07624 0.01386 0.16074 0.02807 0.23694 0.04364 0.62199 0.05454 1.8691 0.29618 2.0935-0.1325-0.85732-0.72955-2.0888-0.82309-3.1332-1.1099-0.16362-0.031175-0.37101-0.065456-0.57366-0.084164l-1.0209-0.22611-0.25565-0.068562v0.00914l-3.657-0.71234c-0.057669-0.053014-0.12158-0.106-0.18085-0.14652l3.5682 0.44271v-0.018846c0.12471 0.028076 0.25097 0.051464 0.37724 0.06701v0.00804l2.5207 0.46451c0.43491 0.16212 0.89947 0.28683 1.3344 0.31333 0.71864 0.10445 1.6306 1.1769 1.866 1.2284-0.11542-1.1286-1.2408-1.6337-2.1762-1.9657-1.0927-0.53159-2.7264-0.51288-2.8994-1.9813-0.046723-0.10293-0.090427-0.20419-0.14655-0.30242l-0.42556-0.5643 0.01496-0.00859c-0.58147-0.68575-1.3967-1.1861-2.265-1.3763-0.86204-0.29775-1.8316-0.59236-2.7436-0.71083-0.30865 0.91036-0.65471-0.72176-1.3983-0.2385-0.65316 0.077984-0.56274 0.24942-1.0475-0.16359zm4.5051 2.053c0.23071-0.00665 0.49416 0.045255 0.75916 0.15896 0.7046 0.30397 1.1629 0.94465 1.0273 1.4326-0.13405 0.48792-0.8184 0.63289-1.523 0.32891-0.7046-0.30397-1.1645-0.9353-1.0288-1.4232 0.08572-0.30553 0.38192-0.4848 0.76539-0.49727z" style="fill-opacity:.15439;fill:#fff;isolation:isolate;stroke-width:1.5588"/>
<path d="m13.945 3.0424c-0.01552 0.5721-1.0133 0.076293-1.0569 0.7311-1.1052-0.4926 0.08416 0.74981-0.02661 0.86516h-0.0045l-0.08419-0.010254c-0.053021-0.018013-0.13095-0.049828-0.24474-0.12149-0.23387 0.18706-0.39911 0.4318-0.53628 0.7046-0.92284 1.4357-1.3718 2.6329-1.6758 4.1434-0.38662 1.9314-0.48171 4.1871-0.44274 6.0888 0.042068 0.5378 0.17614 1.0444 0.61574 1.3827 1.2377 1.0179 2.2681 2.3024 3.3079 3.5277 2.0468 2.7749 3.8394 5.1413 5.0086 7.6292-0.12939-0.835-0.29618-2.1647-0.37568-3.1935-0.71083-3.6212-2.1606-5.537-2.3274-9.5822-0.03896-1.0008 1.0398-3.0242 2.2479-4.0842 1.8223-1.6025 3.138-1.1988 5.4638-0.85581 0.01247 0.0031 0.02946 0.0064 0.0419 8e-3 0.07624 0.01386 0.16074 0.02807 0.23694 0.04364 0.62199 0.05454 1.8691 0.29618 2.0935-0.1325-0.85731-0.72955-2.0888-0.82309-3.1332-1.1099-0.16362-0.031175-0.37101-0.065456-0.57366-0.084164l-1.0209-0.22611-0.25565-0.068562v0.00914l-3.657-0.71234c-0.057669-0.053014-0.12158-0.106-0.18085-0.14652l3.5682 0.44271v-0.018846c0.12471 0.028076 0.25097 0.051464 0.37724 0.06701v0.00804l2.5206 0.46451c0.43491 0.16212 0.89947 0.28683 1.3344 0.31333 0.71864 0.10445 1.6306 1.1769 1.866 1.2284-0.11542-1.1286-1.2408-1.6337-2.1762-1.9657-1.0927-0.53159-2.7264-0.51288-2.8994-1.9813-0.046723-0.10293-0.090426-0.20419-0.14654-0.30242l-0.42556-0.5643 0.01496-0.00859c-0.58146-0.68575-1.3967-1.1861-2.265-1.3763-0.86204-0.29775-1.8316-0.59236-2.7436-0.71083-0.30865 0.91036-0.65471-0.72176-1.3983-0.2385-0.65316 0.077984-0.56274 0.24942-1.0475-0.16359zm4.5051 2.053c0.23071-0.00665 0.49416 0.045255 0.75916 0.15896 0.7046 0.30397 1.1629 0.94465 1.0273 1.4326-0.13405 0.48792-0.8184 0.63289-1.523 0.32891-0.7046-0.30397-1.1645-0.9353-1.0288-1.4232 0.085715-0.30553 0.38192-0.4848 0.76539-0.49727z" style="fill:#fff;isolation:isolate;stroke-width:1.5588"/>
<path transform="matrix(.5 0 0 .5 .066304 .016549)" d="m4.7043 3.9815-0.012938 56.82h53.904l1.0222-2.8664s-23.875 0.76639-32.844-4.1404c-10.516-5.7529-15.372-49.697-15.372-49.697z" style="fill:url(#linearGradient3403);mix-blend-mode:normal;stroke-linejoin:round;stroke-width:1.1624;stroke:url(#linearGradient20558)"/>
<rect transform="matrix(.46839 0 0 .46744 .90638 1.0269)" x="1.0324" y=".59551" width="62.567" height="62.867" rx="5.803" ry="6.2447" style="fill:none;stroke-linejoin:round;stroke-miterlimit:7.8;stroke-opacity:.99515;stroke-width:3.7137;stroke:url(#linearGradient4557)"/>
</svg>
